X:1
T:Title
%%score ( 1 2 ) { 3 | 4 }
L:1/8
Q:1/4=95
M:6/8
K:Bb
V:1 treble nm="Grand Piano, Soprano"
V:2 treble 
V:3 bass nm="Choir Pad, Embarcadero, 76.76.76 D"
V:4 bass 
V:1
 [B,D][DF][DB] [Fd]2 [Ec] | [DB][B,D][EG] [DF]3 | [FA]2 [FB] [Ec]2 [EF] | [DB]3 [DF]3 | %4
w: By~D.~T.~Browne,~1899 * * * *||||
 [B,D][DF][DB] [Fd]2 [Ec] | [DB][B,D][EG] [DF]3 | E-[EA][Ec] E-[EA][Ec] | [Ec]3 [DB]3 | %8
w: ||||
 B,-[B,G][DA] BA[DG] | [Dd]2 [DB] [DG]3 | [Fc]2 [Fd] [Ec][DB][FA] | GAG F2 _E | %12
w: ||||
 [B,D][DF][DB] [Fd]2 [Ec] | [DB][B,D][EG] [DF]3 | E-[EA][Ec] E-[EA][Ec] | [Ec]3 [DB]3 | %16
w: ||||
 [Ac]2 [_A=B] [=Ac]2 [FA] | .F3 z3 | [Ac]2 [_A=B] [=Ac]2 [FA] | GAG F2 _E | %20
w: ||||
 [B,D][DF][DB] [Fd]2 [Fc] | [DB][B,D][EG] [DF]3 | E-[EA][Ec] E-[EA][Ec] | [Ec]3 [DB]3- | [DB]6 |] %25
w: |||||
V:2
 x6 | x6 | x6 | x6 | x6 | x6 | .F3 .F3 | x6 | .D3 .D3 | x6 | x6 | =E3 z3 | x6 | x6 | .F3 .F3 | x6 | %16
 x6 | E-[EG][CE] [B,D]3 | x6 | .=E3 z3 | x6 | x6 | .F3 .F3 | x6 | x6 |] %25
V:3
 F,2 F, B,2 B, | F,2 B, B,3 | C2 B, A,2 A, | B,3 B,3 | F,2 F, B,2 B, | F,2 B, B,3 | %6
 A,[K:treble]CC A,CC | A,3 B,3 | B,G,^F, G,CB, | G,2 G, B,3 | A,2 B, A,B,C | C2 B, A,3 | %12
 B,2 B, B,2 B, | F,2 B, B,3 | A,[K:treble]CC A,CC | A,3 B,3 | F,2 F, F,2 C | C2 A, B,3 | %18
 F,2 F, F,2 C | C2 B, A,3 | B,2 B, B,2 B, | F,2 B, B,3 | A,[K:treble]CC A,CC | A,3 B,3- | B,6 |] %25
V:4
 B,,2 B,, B,,2 B,, | B,,2 B,, B,,3 | F,2 F, F,2 F, | B,,3 B,,3 | B,,2 B,, B,,2 B,, | %5
 B,,2 B,, B,,3 | F,2 F, F,2 F, | F,3 B,,3 | G,,2 D, z2 G, | B,,2 D, G,3 | F,2 F, F,2 F, | C,3 F,3 | %12
 B,,2 B,, B,,2 B,, | B,,2 B,, B,,3 | F,2 F, F,2 F, | F,3 B,,3 | z3 z2 F, | F,2 F, B,,3 | z3 z2 F, | %19
 C,3 F,3 | B,,2 B,, B,,2 B,, | B,,2 B,, B,,3 | F,2 F, F,2 F, | F,3 B,,3- | B,,6 |] %25

